X:1
T:Egredimini filiæ Syon
T:Leon Leoni
T:Egredimini filiæ Syon
C:Leon Leoni
%%score [ 1 2 3 ] 4
L:1/8
Q:1/4=180
M:4/4
K:C
V:1 alto nm="Altus" snm="A"
V:2 tenor nm="Tenor" snm="T"
V:3 bass nm="Bassus" snm="B"
V:4 bass nm="Partitura" snm="Ptra"
V:1
 x8 | z2 z2 z2 x2 |[M:3/2][K:treble][Q:1/4=180] B,8 C4 | B,6 B,2 B,4 | E4 E4 E4 | D8 E4 | D8 C4 | %7
w: ||E- gre-|di- mi- ni|fi- li- æ|Sy- on|et vi-|
[M:4/4][Q:1/4=120] B,8 | B,2 B,2 EDCB, | A,2 B,2 A,4 | B,2 D2 B,2 E2- | ED C2 D4- | D2 C2 B,4 | %13
w: de-|te Re- gi- * * *|* nam ve-|stram in dia- de-|* ma- te su-||
 C8 |[M:3/2][Q:1/4=180] E8 F4 | E6 E2 E4 | F4 F4 D4 | E8 E4 | D8 C4 |[M:4/4][Q:1/4=120] B,8 | %20
w: o,|E- gre-|di- mi- ni|fi- li- æ|Sy- on|et vi-|de-|
 B,2 B,2 EDCB, | A,2 B,2 A,4 | B,2 D2 B,2 E2- | ED C2 D4- | D2 C2 B,4 | A,8 | z4 z2 E2 | %27
w: te Re- gi- * * *|* nam ve-|stram in dia- de-|* ma- te su-||o,|Quo|
 CB,CD E2 E2 | DCDE F2 F2 | E2 D2 E3 E | D6 D2 | E8 | D2 G,A, B,2 C2 | D6 CB, | A,2 A,2 ^G,4 | %35
w: co- * * * * ro-|na- * * * * vit|e- am Do- mi-|nus in|di-|e de- spon- sa- ti-|o- * *|* nis su-|
 A,8 | z4 E4- | E4 E4 | F4 D2 D2 | E3 E C4 | F2 F2 E4 | D2 E4 B,2 | CB,A,G, A,4 | !fermata!^G,8 | %44
w: æ,|et|_ in|di- e lae-|ti- ti- æ|cor- dis su-|i, cor- dis|su- * * * *|i.|
[M:3/2][Q:1/4=180] B,8 C4 | B,6 B,2 B,4 | E4 D4 B,4 | C8 C4 | E8 C4 | D8 D4 | G,4 A,4 B,4 | %51
w: E- gre-|di- mi- ni|fi- li- æ|Sy- on|et vi-|de- te|Re- gi- nam|
 A,8 B,4 | D8 E4 | C6 C2 D4 |[M:4/4][Q:1/4=120] B,8 | ^C8 | z8 | z8 | D6 E2 | ^F2 G4 F2 | %60
w: ve- stram|in dia-|de- ma- te|su-|o,|||To- *||
 G2 G,2 B,3 C | D2 E2 D4 | E8 | C8 | A,2 C2 D3 C | B,2 C2 A,4 | B,4 E4 | E2 E3 D C2 | DCDE F4 | %69
w: tam mo- ni- li-|bus or- na-|tam,|To-|tam mo- ni- li-|bus or- na-|tam, Et|du- o- de- cim|stel- * * * *|
 E2 EF G4 | E4 z2 B,B, | CB,CD EDEB, | CB,A,G, A,3 B, | C8 | !fermata!B,8- | B,8 |] %76
w: lis co- ro- na-|tam, co- ro-|na- * * * * * * *|||tam,|_|
V:2
 x8 | z2 z2 z2 x2 |[M:3/2][K:treble-8] ^G8 A4 | G6 G2 G4 | c4 c4 c4 | B8 c4 | B8 A4 |[M:4/4] ^G8 | %8
w: ||E- gre-|di- mi- ni|fi- li- æ|Sy- on|et vi-|de-|
 ^G2 G2 cBA=G | ^F2 G4 F2 | G2 B4 G2 | c3 B A2 B2- | B2 A4 ^G2 | A8 |[M:3/2] c8 d4 | c6 c2 c4 | %16
w: te Re- gi- * * *|* nam ve-|stram in dia-|de- ma- te su-||o,|E- gre-|di- mi- ni|
 c4 c4 B4 | c8 c4 | B8 A4 |[M:4/4] G8 | G2 G2 cBAG | ^F2 G4 F2 | G2 B4 G2 | c3 B A2 B2- | %24
w: fi- li- æ|Sy- on|et vi-|de-|te Re- gi- * * *|* nam ve-|stram in dia-|de- ma- te su-|
 B2 A4 ^G2 | A4 c4 | BAGA B2 c2 | AGAB c2 c2 | BABc d4 | c2 d4 ^c2 | d4 z2 B2 | c8 | B4 z2 GA | %33
w: |o, Quo|co- * * * * ro-|na- * * * * vit|e- * * * *|am Do- mi-|nus in|di-|e de- spon-|
 B2 c2 d4- | d2 c2 B4 | A4 c4- | c4 B4 | ^c8 | d4 z2 B2 | c3 c A2 c2 | A2 d4 ^c2 | d2 c4 B2 | %42
w: sa- ti- o-|* nis su-|æ, et|_ in|di-|e lae-|ti- ti- æ cor-|dis su- *|i, cor- dis|
 AGAB c4 | B8 |[M:3/2] ^G8 A4 | G6 G2 G4 | c4 A4 ^G4 | A8 A4 | c8 c4 | B8 B4 | E4 F4 G4 | ^F8 G4 | %52
w: su- * * * *|i.|E- gre-|di- mi- ni|fi- li- æ|Sy- on|et vi-|de- te|Re- gi- nam|ve- stram|
 B8 c4 | A6 A2 A4 |[M:4/4] ^G8 | A8 | A6 B2 | ^c2 d4 c2 | d2 D2 ^F3 G | A2 B2 A4 | B4 G3 A | %61
w: in dia-|de- ma- te|su-|o,|To- *||tam mo- ni- li-|bus or- na-|tam, To- *|
 B2 c4 B2 | c2 C2 E3 F | G2 A2 G4 | F2 A2 B3 A | G2 G2 ^F4 | G4 G4 | G2 G3 G A2 | _B4 A2 AB | %69
w: |tam mo- ni- li-|bus or- na-|tam, mo- ni- li-|bus or- na-|tam, Et|du- o- de- cim|stel- lis co- ro-|
 cBcA BcdB | cB A4 ^G2 | A4 z2 ^GG | AGAB c3 B | A2 G2 A4 | ^G8- | G8 |] %76
w: na- * * * * * * *||tam, co- ro-|na- * * * * *||tam,|_|
V:3
 x8 | z2 z2 z2 x2 |[M:3/2] E,8 A,,4 | E,6 E,2 E,4 | C,4 E,4 F,4 | G,8 C,4 | G,,8 A,,4 | %7
w: ||E- gre-|di- mi- ni|fi- li- æ|Sy- on|et vi-|
[M:4/4] E,8 | E,4 C,4 | D,2 B,,2 C,2 D,2 | G,,4 G,4 | E,2 F,3 E, D,2 | E,8 | A,,8 | %14
w: de-|te Re-|gi- nam ve- *|stram in|dia- de- ma- te|su-|o,|
[M:3/2] A,8 D,4 | A,6 A,2 A,4 | F,4 D,4 G,4 | C,8 C,4 | G,,8 A,,4 |[M:4/4] E,8 | E,4 C,4 | %21
w: E- gre-|di- mi- ni|fi- li- æ|Sy- on|et vi-|de-|te Re-|
 D,2 B,,2 C,2 D,2 | G,,4 G,4 | E,2 F,3 E, D,2 | E,8 | A,,4 A,4 | G,F,E,F, G,2 E,2 | F,4 C,4 | %28
w: gi- nam ve- *|stram in|dia- de- ma- te|su-|o, Quo|co- * * * * ro-|na- vit|
 G,4 D,4 | A,6 A,2 | D,6 G,2 | C,8 | G,8 | z2 G,,A,, B,,2 C,2 | D,2 A,,2 E,4 | A,,4 A,4- | %36
w: e- am|Do- mi-|nus in|di-|e|de- spon- sa- ti-|o- nis su-|æ, et|
 A,4 ^G,4 | A,8 | D,2 D,2 G,3 G, | C,4 z2 F,2- | F,2 D,2 A,4 | D,2 A,,4 E,2 | A,,8 | E,8 | %44
w: _ in|di-|e lae- ti- ti-|æ cor-|* dis su-|i, cor- dis|su-|i.|
[M:3/2] E,8 A,,4 | E,6 E,2 E,4 | C,4 D,4 E,4 | A,,8 A,,4 | A,8 A,4 | G,8 G,,4 | C,4 A,,4 G,,4 | %51
w: E- gre-|di- mi- ni|fi- li- æ|Sy- on|et vi-|de- te|Re- gi- nam|
 D,8 G,,4 | G,8 E,4 | F,6 E,2 D,4 |[M:4/4] E,8 | A,,8 | z8 | z8 | z8 | z8 | G,8- | G,8 | C,8- | %63
w: ve- stram|in dia-|de- ma- te|su-|o,|||||To-||tam|
 C,4 C,4 | F,3 E, D,2 D,2 | E,D,E,C, D,4 | G,,4 C,4 | C,2 C,3 _B,, A,,2 | G,,4 F,,2 F,G, | %69
w: _ mo-|ni- li- bus or-|na- * * * *|tam, Et|du- o- de- cim|stel- lis co- ro-|
 A,4 G,4 | z2 C,D, E,4 | A,,2 A,,4 E,2 | A,,8- | A,,8 | E,8- | E,8 |] %76
w: na- tam,|co- ro- na-|tam, co- ro-|na-||tam,|_|
V:4
 x8 | z2 z2 z2 x2 |[M:3/2] E,8 A,,4 | E,6 E,2 E,4 | C,4 E,4 F,4 | G,8 C,4 | G,,8 A,,4 | %7
[M:4/4] E,8 | E,4 C,4 | D,2 B,,2 C,2 D,2 | G,,4 G,4 | E,2 F,3 E, D,2 | E,8 | A,,8 | %14
[M:3/2] A,8 D,4 | A,6 A,2 A,4 | F,4 D,4 G,4 | C,8 C,4 | G,,8 A,,4 |[M:4/4] E,8 | E,4 C,4 | %21
 D,2 B,,2 C,2 D,2 | G,,4 G,4 | E,2 F,3 E, D,2 | E,8 | A,,4 A,4 | G,F,E,F, G,2 E,2 | F,4 C,4 | %28
 G,4 D,4 | A,6 A,2 | D,6 G,2 | C,8 | G,8 | G,,3 A,, B,,2 C,2 | D,2 A,,2 E,4 | A,,4 A,4- | %36
 A,4 ^G,4 | A,8 | D,2 D,2 G,3 G, | C,4 F,4- | F,2 D,2 A,4 | D,2 A,,4 E,2 | A,,8 | E,8 | %44
[M:3/2] E,8 A,,4 | E,6 E,2 E,4 | C,4 D,4 E,4 | A,,8 A,,4 | A,8 A,4 | G,8 G,,4 | C,4 A,,4 G,,4 | %51
 D,8 G,,4 | G,8 E,4 | F,6 E,2 D,4 |[M:4/4] E,8 | A,,8 | A,8- | A,8 | D,8- | D,8 | G,8- | G,8 | %62
 C,8- | C,4 C,4 | F,3 E, D,2 D,2 | E,4 D,4 | G,,4 C,4 | C,2 C,3 _B,, A,,2 | G,,4 F,,2 F,G, | %69
 A,4 G,4 | C,3 D, E,4 | A,,2 A,,4 E,2 | A,,8- | A,,8 | E,8- | E,8 |] %76

